Sources/FrostedUI/Resources/Icons.xcassets/headphones20.imageset/headphones-20.svg

<svg width="20" height="20" viewBox="0 0 20 20" fill="none" xmlns="http://www.w3.org/2000/svg" data-fui-icon="true">
  <path
    d="M10 1.4375C13.011 1.4375 15.1825 2.53425 16.5889 4.2041C17.9774 5.85295 18.5625 7.99065 18.5625 10V13.75C18.5625 13.7798 18.56 13.809 18.5566 13.8379C18.5603 13.9123 18.5625 13.9872 18.5625 14.0625C18.5625 16.5478 16.5478 18.5625 14.0625 18.5625C12.9579 18.5625 12.0625 17.6671 12.0625 16.5625V11.5625C12.0625 10.4579 12.9579 9.5625 14.0625 9.5625C15.2152 9.5625 16.2663 9.99625 17.0625 10.709V10C17.0625 8.25952 16.5536 6.49076 15.4424 5.1709C14.3488 3.87222 12.6138 2.9375 10 2.9375C7.38625 2.9375 5.65124 3.87222 4.55762 5.1709C3.44635 6.49076 2.9375 8.25952 2.9375 10V10.709C3.73367 9.99625 4.78481 9.5625 5.9375 9.5625C7.04207 9.5625 7.9375 10.4579 7.9375 11.5625V16.5625C7.9375 17.6671 7.04207 18.5625 5.9375 18.5625C3.45222 18.5625 1.4375 16.5478 1.4375 14.0625C1.4375 13.9872 1.43873 13.9123 1.44238 13.8379C1.43902 13.8091 1.4375 13.7797 1.4375 13.75V10C1.4375 7.99065 2.02263 5.85295 3.41113 4.2041C4.81752 2.53425 6.98899 1.4375 10 1.4375ZM5.9375 11.0625C4.28065 11.0625 2.9375 12.4056 2.9375 14.0625C2.9375 15.7194 4.28065 17.0625 5.9375 17.0625C6.21364 17.0625 6.4375 16.8386 6.4375 16.5625V11.5625C6.4375 11.2864 6.21364 11.0625 5.9375 11.0625ZM14.0625 11.0625C13.7864 11.0625 13.5625 11.2864 13.5625 11.5625V16.5625C13.5625 16.8386 13.7864 17.0625 14.0625 17.0625C15.7194 17.0625 17.0625 15.7194 17.0625 14.0625C17.0625 12.4056 15.7194 11.0625 14.0625 11.0625Z"
    fill="currentColor"
  />
</svg>

<svg xmlns="http://www.w3.org/2000/svg" width="20" height="20" fill="none" data-fui-icon="true" viewBox="0 0 20 20"><path fill="currentColor" d="M10 1.438c3.011 0 5.182 1.096 6.589 2.766 1.388 1.649 1.974 3.787 1.974 5.796v3.75a1 1 0 0 1-.006.088q.005.112.006.225a4.5 4.5 0 0 1-4.5 4.5 2 2 0 0 1-2-2v-5a2 2 0 0 1 2-2c1.152 0 2.203.433 3 1.146V10c0-1.74-.51-3.51-1.62-4.83-1.094-1.298-2.83-2.232-5.443-2.232-2.614 0-4.349.934-5.442 2.233C3.446 6.49 2.938 8.26 2.938 10v.709a4.48 4.48 0 0 1 3-1.146 2 2 0 0 1 2 2v5a2 2 0 0 1-2 2 4.5 4.5 0 0 1-4.496-4.725 1 1 0 0 1-.004-.088V10c0-2.01.585-4.147 1.973-5.796C4.818 2.534 6.99 1.438 10 1.438m-4.062 9.625a3 3 0 1 0 0 6 .5.5 0 0 0 .5-.5v-5a.5.5 0 0 0-.5-.5m8.125 0a.5.5 0 0 0-.5.5v5a.5.5 0 0 0 .5.5 3 3 0 1 0 0-6"/></svg>
